src/main/resources/icons/page-ts.svg

<?xml version="1.0" encoding="utf-8"?>
<!-- Generator: Adobe Illustrator 27.0.0, SVG Export Plug-In . SVG Version: 6.00 Build 0)  -->
<svg version="1.1" id="Layer_1" xmlns="http://www.w3.org/2000/svg" xmlns:xlink="http://www.w3.org/1999/xlink" x="0px" y="0px"
	 viewBox="0 0 98.1 118" style="enable-background:new 0 0 98.1 118;" xml:space="preserve">
<style type="text/css">
	.st0{fill:#3178C6;}
	.st1{fill:#318AC6;}
	.st2{fill:#EBEBEB;}
	.st3{fill:#FFFFFF;}
</style>
<path class="st0" d="M10.1,102.1l-8.6-97h95l-8.6,97l-39,10.8"/>
<path class="st1" d="M50,104.6V13.1h38.8l-7.4,82.8"/>
<path class="st2" d="M48,33.8l-17.6-0.1c-9.7,0-17.6,0-17.7,0.1c-0.1,1.4-0.1,2.9-0.1,4.3v4.2h13.1v38.9H35V42.3h13.1l0-4.3L48,33.8
	z"/>
<path class="st3" d="M81.2,60.5c-1.9-3-5-5.2-12.2-8.4c-3.9-1.8-5.2-2.6-5.8-4.1c-0.3-0.6-0.5-1.3-0.4-2c0-2.8,1.9-4.5,5-4.2
	c2,0.1,3.7,1.2,4.7,3c0.4,0.7,0.8,1.1,0.9,1c2.7-1.7,7-4.8,7-4.9c-0.7-1.2-1.5-2.4-2.4-3.4c-1.7-1.9-3.9-3.2-6.3-3.8
	c-2.5-0.5-5.1-0.6-7.6-0.2c-5.1,0.7-9.2,4.7-10.3,10c-0.3,2.2-0.2,4.5,0.2,6.7c0.5,1.9,1.5,3.7,2.8,5.3c2.7,2.7,5.9,4.8,9.5,6.1
	c4.5,2.1,6.1,3,6.9,4.2c1.2,1.8,1,4.3-0.6,5.8c-2.9,2.1-6.7,2.3-9.8,0.5c-1.5-1-2.8-2.3-3.8-3.8l-0.6-0.9L55.4,69
	c-1.6,1-3.3,2-3.7,2.3c-0.3,0.2-0.6,0.4-0.9,0.6c0.7,1.5,1.6,2.8,2.6,4.1c2.8,3,6.3,4.9,10.2,5.6c2.5,0.4,5.1,0.4,7.7,0.1
	c4.9-0.5,9.1-3.6,11.1-8.3C83.8,69.1,83.4,64.4,81.2,60.5z"/>
</svg>

<?xml version="1.0" encoding="UTF-8" standalone="no"?>
<!DOCTYPE svg PUBLIC "-//W3C//DTD SVG 1.1//EN" "http://www.w3.org/Graphics/SVG/1.1/DTD/svg11.dtd">
<svg width="100%" height="100%" viewBox="0 0 99 118" version="1.1" xmlns="http://www.w3.org/2000/svg" xmlns:xlink="http://www.w3.org/1999/xlink" xml:space="preserve" xmlns:serif="http://www.serif.com/" style="fill-rule:evenodd;clip-rule:evenodd;stroke-linejoin:round;stroke-miterlimit:2;">
    <path d="M10.1,102.1L1.5,5.1L96.5,5.1L87.9,102.1L48.9,112.9" style="fill:rgb(49,120,198);fill-rule:nonzero;"/>
    <path d="M48,33.8L30.4,33.7C20.7,33.7 12.8,33.7 12.7,33.8C12.6,35.2 12.6,36.7 12.6,38.1L12.6,42.3L25.7,42.3L25.7,81.2L35,81.2L35,42.3L48.1,42.3L48.1,38L48,33.8Z" style="fill:white;fill-rule:nonzero;"/>
    <path d="M81.2,60.5C79.3,57.5 76.2,55.3 69,52.1C65.1,50.3 63.8,49.5 63.2,48C62.9,47.4 62.7,46.7 62.8,46C62.8,43.2 64.7,41.5 67.8,41.8C69.8,41.9 71.5,43 72.5,44.8C72.9,45.5 73.3,45.9 73.4,45.8C76.1,44.1 80.4,41 80.4,40.9C79.7,39.7 78.9,38.5 78,37.5C76.3,35.6 74.1,34.3 71.7,33.7C69.2,33.2 66.6,33.1 64.1,33.5C59,34.2 54.9,38.2 53.8,43.5C53.5,45.7 53.6,48 54,50.2C54.5,52.1 55.5,53.9 56.8,55.5C59.5,58.2 62.7,60.3 66.3,61.6C70.8,63.7 72.4,64.6 73.2,65.8C74.4,67.6 74.2,70.1 72.6,71.6C69.7,73.7 65.9,73.9 62.8,72.1C61.3,71.1 60,69.8 59,68.3L58.4,67.4L55.4,69C53.8,70 52.1,71 51.7,71.3C51.4,71.5 51.1,71.7 50.8,71.9C51.5,73.4 52.4,74.7 53.4,76C56.2,79 59.7,80.9 63.6,81.6C66.1,82 68.7,82 71.3,81.7C76.2,81.2 80.4,78.1 82.4,73.4C83.8,69.1 83.4,64.4 81.2,60.5Z" style="fill:white;fill-rule:nonzero;"/>
</svg>
